X: 1
T: Snoa av Kalle Alml\"of
O: Malung, Sweden
R: march
Z: 2017 John Chambers <jc:trillian.mit.edu>
S: handwritten MS of unknown origin.
M: 2/4
L: 1/16
K: C
CD |\
{D}E2CD E2CD | {D}E2E2 E3F | E2DE {E}F2E2 | D6 B,C |\
D2B,C D2B,C | D2G2 g3A | G2F2 E2D2 | C6 :|
C2 |:\
F3G (FE)FG | A2~A2 A2F2 | E3D (CB,)CE | G2(AG) F2E2 |\
D3C (B,C)DE |[1,3 D3C (B,C)DE |
C3D (ED)EF | G2AG E2C2 :|\
[2,4 (FG)FD (B,G,)A,B, | C2E2 (DE)DB, | C4 (B,C)DE :|
